X:14
T:Litchfield Races. BC.14
M:6/8
L:1/8
Q:3/8=120
S:Benjamin Cooke MS.circa 1770, F.Kidson Coll.
R:.Jig
O:England
A:Uncertain, probably northern
Z:vmp.John Bagnall
K:G
G2 G G2 B|dBG AFD|G2 G G2 B|dBG A2 D|!
G2 G G2 B|dBG AFD|BdB cAF|G2 G “^Cr”G3||!
gdB gdB|cec dBG|gdB gdB|A2 A A2 f|!
gdB gdB|cec dBG|cec BdB|G2 G “^Cr”G3|]
%%Cr=crotchet in MS

